X:56
T:Delvin Side
S:Petrie's Second Collection of Strathspey Reels and Country Dances &c.
Z:Steve Wyrick , 6/11/04
N:Petrie's Second Collection, page 20
L:1/8
M:C
R:Strathspey
K:Bm
E>e d/B/A/B/  d<EB>A  |E>e d/B/A/B/ d<DA>F|E>e d/B/A/B/  dEEg  |f<ae<f            d<DA>F     :|
d<EB<E        d<E TB>A|d<EB<E        d<EA>F|d<EB<E        d<EE>g|f/g/a/f/ e/f/g/e/ dD B/A/G/F/|
d<EB<E        d<E TB>A|d<EB<E        d<EA>F|d<EB<E        d<EE>g|f/g/a/f/ e/f/g/e/ dD B/A/G/F/|]
